X:88
T:score176
L:1/16
Q:1/4=96
M:2/4
I:linebreak $
K:C
!f! (e'g'2)e' .g'2.e'2 | (c'e'2)c' .e'2.c'2 | (ac'2a) c'2(ac') | !>!a8 |!mf! (ga2)g .e2.g2 |$ %5
 (ef2)e c4 |!f! (cd2)c G2(GB) | !>!G8 |] %8
